X:59
T:Finnigans Wake
S:American Veteran Fifer #59
M:C
L:1/4
Q:1/4=200
K:G 
%%MIDI program 72
%%MIDI transpose 8
%%MIDI ratio 3 1
G>A B A | Bded | g/g/g/g/ ge | dBA2 |
G>A BA | Bded | g/g/g/g/ gd | efg2 :|
|: g>fga | gfed | g>fga | gfe2 | g>fga |
gfed | e/e/e/e/ ed | efg2 :|

